assets/icons/svg/phone.svg

<svg width="16" height="16" viewBox="0 0 16 16" fill="none" xmlns="http://www.w3.org/2000/svg">
<path d="M11.6364 1H4.36364C4.00198 1 3.65513 1.13828 3.3994 1.38442C3.14367 1.63056 3 1.9644 3 2.3125V13.6875C3 14.0356 3.14367 14.3694 3.3994 14.6156C3.65513 14.8617 4.00198 15 4.36364 15H11.6364C12.3891 15 13 14.412 13 13.6875V2.3125C13 1.9644 12.8563 1.63056 12.6006 1.38442C12.3449 1.13828 11.998 1 11.6364 1V1ZM12.0909 13.6875C12.0909 13.9286 11.8868 14.125 11.6364 14.125H4.36364C4.24308 14.125 4.12747 14.0789 4.04222 13.9969C3.95698 13.9148 3.90909 13.8035 3.90909 13.6875V12.8108H12.0909V13.6875ZM12.0909 12.3733H3.90909V3.625H12.0909V12.3733ZM12.0909 3.1875H3.90909V2.3125C3.90909 2.19647 3.95698 2.08519 4.04222 2.00314C4.12747 1.92109 4.24308 1.875 4.36364 1.875H11.6364C11.8868 1.875 12.0909 2.071 12.0909 2.3125V3.1875Z" fill="#333333"/>
<path d="M8.90909 2.53125C8.90909 2.58927 8.88515 2.64491 8.84253 2.68593C8.79991 2.72695 8.7421 2.75 8.68182 2.75H7.31818C7.25791 2.75 7.2001 2.72695 7.15748 2.68593C7.11486 2.64491 7.09091 2.58927 7.09091 2.53125C7.09091 2.47323 7.11486 2.41759 7.15748 2.37657C7.2001 2.33555 7.25791 2.3125 7.31818 2.3125H8.68182C8.7421 2.3125 8.79991 2.33555 8.84253 2.37657C8.88515 2.41759 8.90909 2.47323 8.90909 2.53125ZM8.45455 13.467C8.45455 13.5873 8.35228 13.6858 8.22728 13.6858H7.77273C7.71245 13.6858 7.65465 13.6627 7.61202 13.6217C7.5694 13.5807 7.54546 13.525 7.54546 13.467C7.54546 13.409 7.5694 13.3533 7.61202 13.3123C7.65465 13.2713 7.71245 13.2483 7.77273 13.2483H8.22728C8.28755 13.2483 8.34536 13.2713 8.38798 13.3123C8.4306 13.3533 8.45455 13.409 8.45455 13.467Z" fill="#333333"/>
</svg>

<svg xmlns="http://www.w3.org/2000/svg" width="16" height="16" viewBox="0 0 16 16">
  <path d="M11.636 1H4.364c-.362 0-.709.138-.965.384-.255.247-.399.58-.399.929v11.374c0 .349.144.682.4.929.255.246.602.384.964.384h7.272C12.39 15 13 14.412 13 13.687V2.313a1.29 1.29 0 0 0-.4-.929A1.391 1.391 0 0 0 11.637 1Zm.455 12.688a.447.447 0 0 1-.455.437H4.364a.464.464 0 0 1-.322-.128.43.43 0 0 1-.133-.31v-.876h8.182v.877Zm0-1.315H3.909V3.625h8.182v8.748Zm0-9.185H3.909v-.876a.43.43 0 0 1 .133-.309.464.464 0 0 1 .322-.128h7.272c.25 0 .455.196.455.438v.874Z"/>
  <path d="M8.91 2.531a.215.215 0 0 1-.067.155.232.232 0 0 1-.161.064H7.318a.232.232 0 0 1-.16-.064.215.215 0 0 1 0-.31.232.232 0 0 1 .16-.063h1.364a.23.23 0 0 1 .16.064.215.215 0 0 1 .067.154Zm-.455 10.936c0 .12-.103.219-.228.219h-.454a.232.232 0 0 1-.16-.064.215.215 0 0 1-.001-.31.232.232 0 0 1 .16-.064h.455c.06 0 .118.023.161.064a.215.215 0 0 1 .067.155Z"/>
</svg>
